X: 68
T: Brau de pe Valea Bistrei
B: incoming
M:7/8
Q: 1/4=192
K:Dm
V:1 
x7      |x7      |x7      |x7   |\
x7      |x7      |x7      |x7   |
x7      |x7      |x7      |x7   |\
x7      |x7      |x7      |x7   |
V:2 
G3 A4   |A3 G4   |c3 F4   |E3 C4|\
G2A B4- |B3 B2A2 |G2A A4- |A7   |
G3 A4   |A3 G4   |c3 F4   |E3 C4|\
F2E FGAF|G2F E2C2|D7      |D7   |
% abcbook-tune_id 63cb082ffa02f3377c491c36
% abcbook-tune_composer_id 
% abcbook-boost 0
% abcbook-difficulty 0
% abcbook-tags balkan dances
% abcbook-tablature 
% abcbook-transpose 
% abcbook-tuning 
% abcbook-lastupdated 1674250287865
% abcbook-soundfonts 
% abcbook-repeats 1


